X:510
T:The Southern Breeze
M:6/8
L:1/8
B:O'Neill's 510
N:"Briskly" "collected by J. O'Neill"
Z:Transcribed by Dave Wooldridge
K:A
d \
| cBA (cec) | B2 B B2 d | cBA (FEF) | A2 A A2 d |
cBA (cec) | BEF GAB | cBA (FEF) | A2 A A2 ||
e \
| a2 a (agf) | e2 e e2 d | cBA (cec) | B2 B B2 e |
a2 a agf | (ecf)  (e2 .d) | cBA d2 B |  A2 A A2 ||


